web/ui/src/components/theme/menu/svgs/component.svg

<svg height="25" viewBox="0 0 24 25" width="24" xmlns="http://www.w3.org/2000/svg"><g fill="none" fill-rule="evenodd" transform="translate(0 1)"><path d="m0 0h24v24h-24z" fill="#000" fill-rule="nonzero" opacity="0"/><path d="m18.8526 13.844c.5564 0 .9628.2418 1.318.7844.1210755.1850491.3493288.2685847.5612504.2054051.2119217-.0631796.3571496-.2580661.3571496-.4792051v-3.4064c0-.1326082-.0526784-.2597852-.1464466-.3535534s-.2209452-.1464466-.3535534-.1464466h-2.8244c.3156-.5132.4748-1.04940001.475-1.6028-.0002-1.26439999-.8232-2.37019999-1.9344-2.7738-.0924702-.13957356-.2487739-.22347127-.4162-.22339999h-3.2554c.2182-.37099999.3678-.78700001.368-1.28020001-.0002-1.392-1.1424-2.568-2.4942-2.568-.66799999 0-1.29940001.28300001-1.77800002.79660001-.4566.49039999-.7186 1.14859999-.71839999 1.80579998 0 .48559999.13840001.882.35419999 1.24580002h-2.37619999c-.27614237 0-.49999999.22385762-.49999999.49999999v1.79860001c-.28360001-.15139999-.62620001-.25339999-1.041-.25340002-1.37260001 0-2.448 1.09699999-2.448 2.49740001 0 1.4008 1.0644 2.4984 2.4234 2.4984.38659999 0 .74020001-.0864 1.0656-.261v3.22c0 .0402.006.079.015.1168.12979999 1.4684 1.311 2.5832 2.79679999 2.5832.56239999 0 1.00420001-.1668 1.38799999-.4188v3.2188c0 .1326082.05267843.2597852.14644662.3535534s.2209452.1464466.3535534.1464466h10.4c.2761424 0 .5-.2238576.5-.5v-4.3106c-.0000264-.2210519-.1452033-.4158528-.3570251-.4790625-.2118219-.0632098-.440012.0201746-.5611749.2050625-.3556.5426-.7624.7844-1.3184.7844-.4917359.0013981-.9635945-.1939854-1.3104-.5426-.3485254-.3466034-.5438468-.81827-.5424-1.3098.0002-1.0208.8316-1.8516 1.8532-1.8516zm-14.4292-1.9548c-.81160001 0-1.42340002-.6442-1.42340002-1.4982 0-.83980001.6362-1.49740001 1.44800002-1.49740001.4494 0 .7812.19240001 1.14519998.66400001.00046098.21794918.14215512.41044807.35012092.4756576.20796581.0652095.43420455-.0119208.5590275-.19058608.12482295-.1786653.11942084-.41762945-.01334842-.59047152v-2.40400001h2.87960002c.19572052.00025669.37356549-.11379562.45497999-.29177952.0814145-.17798389.05140233-.38711551-.07678-.53502048-.5088-.58900001-.73579999-.9336-.73579999-1.419 0-.40720001.16399999-.81700001.45019999-1.12419998.2874-.3084.65880001-.47840002 1.04600001-.47840002.8098 0 1.494.7182 1.4942 1.56800002-.0002.501-.2508.8826-.7442 1.4532-.1279482.14800014-.1578247.35702743-.0764603.53494485s.2590209.29203665.4546603.29205514h1.7024c-.5068.5592-.7978 1.30000001-.7976 2.03959999 0 .54400001.1518 1.06039999.4608 1.56040001h-2.812c-.27614238 0-.5.2238576-.5.5v2.3094c-.38119999-.2522-.81439999-.4136-1.37420002-.4136-.696 0-1.333.2568-1.8258.68v-1.9932c-.00005124-.2139174-.13618248-.4041048-.33865656-.4731331-.20247407-.0690284-.42643143-.0016039-.55714344.1677331-.3544.4592-.7152.664-1.16979998.664zm12.4116 5.8234c.5338206.5368774 1.2603023.8377836 2.0174.8356.4568 0 .87-.109 1.2366-.3258v2.6258h-9.4v-3.8106c.0001662-.2031013-.1225898-.3861068-.3105718-.4630025-.1879819-.0768958-.40380401-.0323887-.5460282.1126025-.58519999.5954-.94540001.861-1.53140002.861-1.01479999 0-1.80979999-.8136-1.80979999-1.8524s.801-1.852 1.82359999-1.852c.5786 0 .921.2538 1.51760002.861.14214669.1449746.3579378.1894139.5458.1124.1878952-.0769288.3106825-.2597664.3108-.4628v-2.9062h3.3612c.2031621.0002843.3862643-.1224859.4631454-.3105397.0768812-.1880537.0322288-.4039358-.1129454-.5460603-.5868-.5766-.86-1.118-.86-1.70400001-.0002-.5022.2018-1.00780001.5542-1.3872.3554-.3828.8158-.59359999 1.296-.59359999 1.002 0 1.8484.88780001 1.8486 1.9386-.0002.5916-.293 1.1792-.8702 1.7462-.1451742.1421245-.1898266.3580066-.1129454.5460603.0768811.1880538.2599833.310824.4631454.3105397h3.3692v1.7214c-.3664-.2166-.7792-.3256-1.2364-.3256-1.573 0-2.853 1.2792-2.853 2.852-.0016632.7568387.2993433 1.4829268.836 2.0166z" fill="#082340"/></g></svg>

<?xml version="1.0" encoding="UTF-8"?>
<svg width="24px" height="25px" viewBox="0 0 24 25" version="1.1" xmlns="http://www.w3.org/2000/svg" xmlns:xlink="http://www.w3.org/1999/xlink">
    <title>30-复制组件</title>
    <g id="页面-1" stroke="none" stroke-width="1" fill="none" fill-rule="evenodd">
        <g id="建木自动化-创建项目" transform="translate(-1554.000000, -20.000000)">
            <g id="30-复制组件" transform="translate(1554.000000, 21.000000)">
                <rect id="矩形" fill="#000000" fill-rule="nonzero" opacity="0" x="0" y="0" width="24" height="24"></rect>
                <path d="M18.8526,13.844 C19.409,13.844 19.8154,14.0858 20.1706,14.6284 C20.2916755,14.8134491 20.5199288,14.8969847 20.7318504,14.8338051 C20.9437721,14.7706255 21.089,14.575739 21.089,14.3546 L21.089,10.9482 C21.089,10.8155918 21.0363216,10.6884148 20.9425534,10.5946466 C20.8487852,10.5008784 20.7216082,10.4482 20.589,10.4482 L17.7646,10.4482 C18.0802,9.935 18.2394,9.39879999 18.2396,8.8454 C18.2394,7.58100001 17.4164,6.47520001 16.3052,6.0716 C16.2127298,5.93202644 16.0564261,5.84812873 15.889,5.84820001 L12.6336,5.84820001 C12.8518,5.47720002 13.0014,5.0612 13.0016,4.568 C13.0014,3.176 11.8592,2 10.5074,2 C9.83940001,2 9.20799999,2.28300001 8.72939998,2.79660001 C8.27279998,3.287 8.01079998,3.9452 8.01099999,4.60239999 C8.01099999,5.08799998 8.1494,5.48439999 8.36519998,5.84820001 L5.98899999,5.84820001 C5.71285762,5.84820001 5.489,6.07205763 5.489,6.3482 L5.489,8.14680001 C5.20539999,7.99540002 4.86279999,7.89340002 4.448,7.89339999 C3.07539999,7.89339999 2,8.99039998 2,10.3908 C2,11.7916 3.0644,12.8892 4.4234,12.8892 C4.80999999,12.8892 5.16360001,12.8028 5.489,12.6282 L5.489,15.8482 C5.489,15.8884 5.495,15.9272 5.504,15.965 C5.63379999,17.4334 6.815,18.5482 8.30079999,18.5482 C8.86319998,18.5482 9.305,18.3814 9.68879998,18.1294 L9.68879998,21.3482 C9.68879998,21.4808082 9.74147841,21.6079852 9.8352466,21.7017534 C9.92901479,21.7955216 10.0561918,21.8482 10.1888,21.8482 L20.5888,21.8482 C20.8649424,21.8482 21.0888,21.6243424 21.0888,21.3482 L21.0888,17.0376 C21.0887736,16.8165481 20.9435967,16.6217472 20.7317749,16.5585375 C20.519953,16.4953277 20.2917629,16.5787121 20.1706,16.7636 C19.815,17.3062 19.4082,17.548 18.8522,17.548 C18.3604641,17.5493981 17.8886055,17.3540146 17.5418,17.0054 C17.1932746,16.6587966 16.9979532,16.18713 16.9994,15.6956 C16.9996,14.6748 17.831,13.844 18.8526,13.844 L18.8526,13.844 Z M4.4234,11.8892 C3.61179999,11.8892 2.99999998,11.245 2.99999998,10.391 C2.99999998,9.55119999 3.63619998,8.89359999 4.448,8.89359999 C4.8974,8.89359999 5.2292,9.086 5.59319998,9.5576 C5.59366096,9.77554918 5.7353551,9.96804807 5.9433209,10.0332576 C6.15128671,10.0984671 6.37752545,10.0213368 6.5023484,9.84267152 C6.62717135,9.66400622 6.62176924,9.42504207 6.48899998,9.2522 L6.48899998,6.84819999 L9.3686,6.84819999 C9.56432052,6.84845668 9.74216549,6.73440437 9.82357999,6.55642047 C9.90499449,6.37843658 9.87498232,6.16930496 9.74679999,6.02139999 C9.23799999,5.43239998 9.011,5.08779999 9.011,4.60239999 C9.011,4.19519998 9.17499999,3.78539998 9.46119999,3.47820001 C9.74859999,3.16980001 10.12,2.99979999 10.5072,2.99979999 C11.317,2.99979999 12.0012,3.71799999 12.0014,4.56780001 C12.0012,5.06880001 11.7506,5.45040001 11.2572,6.02100001 C11.1292518,6.16900015 11.0993753,6.37802744 11.1807397,6.55594486 C11.2621041,6.73386228 11.4397606,6.84798151 11.6354,6.848 L13.3378,6.848 C12.831,7.4072 12.54,8.14800001 12.5402,8.88759999 C12.5402,9.4316 12.692,9.94799998 13.001,10.448 L10.189,10.448 C9.91285762,10.448 9.689,10.6718576 9.689,10.948 L9.689,13.2574 C9.30780001,13.0052 8.87460001,12.8438 8.31479998,12.8438 C7.61879998,12.8438 6.98179998,13.1006 6.48899998,13.5238 L6.48899998,11.5306 C6.48894874,11.3166826 6.3528175,11.1264952 6.15034342,11.0574669 C5.94786935,10.9884385 5.72391199,11.055863 5.59319998,11.2252 C5.23879998,11.6844 4.87799998,11.8892 4.4234,11.8892 Z M16.835,17.7126 C17.3688206,18.2494774 18.0953023,18.5503836 18.8524,18.5482 C19.3092,18.5482 19.7224,18.4392 20.089,18.2224 L20.089,20.8482 L10.689,20.8482 L10.689,17.0376 C10.6891662,16.8344987 10.5664102,16.6514932 10.3784282,16.5745975 C10.1904463,16.4977017 9.97462419,16.5422088 9.8324,16.6872 C9.24720001,17.2826 8.88699999,17.5482 8.30099998,17.5482 C7.28619999,17.5482 6.49119999,16.7346 6.49119999,15.6958 C6.49119999,14.657 7.29219999,13.8438 8.31479998,13.8438 C8.89339998,13.8438 9.23579998,14.0976 9.8324,14.7048 C9.97454669,14.8497746 10.1903378,14.8942139 10.3782,14.8172 C10.5660952,14.7402712 10.6888825,14.5574336 10.689,14.3544 L10.689,11.4482 L14.0502,11.4482 C14.2533621,11.4484843 14.4364643,11.3257141 14.5133454,11.1376603 C14.5902266,10.9496066 14.5455742,10.7337245 14.4004,10.5916 C13.8136,10.015 13.5404,9.4736 13.5404,8.88759999 C13.5402,8.38539999 13.7422,7.87979998 14.0946,7.50039999 C14.45,7.11759999 14.9104,6.9068 15.3906,6.9068 C16.3926,6.9068 17.239,7.79460001 17.2392,8.8454 C17.239,9.437 16.9462,10.0246 16.369,10.5916 C16.2238258,10.7337245 16.1791734,10.9496066 16.2560546,11.1376603 C16.3329357,11.3257141 16.5160379,11.4484843 16.7192,11.4482 L20.0884,11.4482 L20.0884,13.1696 C19.722,12.953 19.3092,12.844 18.852,12.844 C17.279,12.844 15.999,14.1232 15.999,15.696 C15.9973368,16.4528387 16.2983433,17.1789268 16.835,17.7126 Z" id="形状" fill="#082340"></path>
            </g>
        </g>
    </g>
</svg>
